X:1
T:Pr\"aludium
T:Pr\"aludium
T:(Prelude) BWV 939
T:Johann Sebastian Bach
C:Johann Sebastian Bach
%%score 1 2
L:1/8
Q:1/4=100
M:4/4
K:C
V:1 treble 
V:2 bass 
V:1
 z CEG EC_BG | ACFA FCcA | =BGBd BGfd | [Gce]4 z2 [Gce]2 | [Acd]4 z2 [Acd]2 | %5
 [GBd] GBd [GB]2 [Be]2 | [cc]4 z2 [EAc]2- | [EAc] D^FA FDcA | BGBd BG=fd | eGce cGge | ^fAcf cAaf | %11
 [Bdg]4 z2 B2 | cegc' ge_bg | a/g/f/e/ d/c/=B/A/ B/G/A/B/ c/d/e/f/ | g2 [Gc]4 [DB]2 | [Ec]8 |] %16
V:2
 [C,,C,]8- | [C,,C,]8- | [C,,C,]8 | z C,E,G, E,C,CE, | ^F,D,F,A, F,D,DF, | G,4 z2 G,2 | %6
 A,A,,C,E, C,A,,G,E, | ^F,4 z2 D,2 | PG,2 G,,2 PG,2 G,,2 | PG,2 G,,2 PG,2 G,,2 | %10
 PG,2 G,,2 PG,2 G,,2 | G,G,,B,,D, B,,G,,=F,D, | E,C,E,G, E,C,CE, | F,8- | F,D,E,C, G,2 G,,2 | %15
 C,,8 |] %16

